X: 17130
T: Helen Robertson
R: waltz
M: 3/4
K: Dmajor
a2|f4 ed|f4 ed|d2 B3d|B2 A4|
A2 B2 d2|f4 ef|a4 f2|e4 a2|
f4 ed|f4 ed|d2 B3d|B2 A3D|
F4 AF|G4 FE|A2 e3c|d4||
FE|D4 AG|F4 GA|B2 d3B|B2 A4|
A2 B2 d2|f4 ef|a4 f2|e4 a2|
f4 ed|f4 ed|d2 B2 d2|B2 A3D|
F4 AF|G4 FE|A2 e3c|d4||

